svg/fluentui-system-icons/ic_fluent_person_arrow_left_24_regular.svg

<svg width="24" height="24" viewBox="0 0 24 24" fill="none" xmlns="http://www.w3.org/2000/svg">
<path d="M17.5004 12.0003C20.5379 12.0003 23.0004 14.4627 23.0004 17.5003C23.0004 20.5378 20.5379 23.0003 17.5004 23.0003C14.4628 23.0003 12.0004 20.5378 12.0004 17.5003C12.0004 14.4627 14.4628 12.0003 17.5004 12.0003ZM12.0226 13.9996C11.7259 14.4629 11.4864 14.9663 11.314 15.4999L4.25391 15.5002C3.83969 15.5002 3.50391 15.836 3.50391 16.2502V17.1575C3.50391 17.8132 3.7899 18.4362 4.28707 18.8636C5.54516 19.9453 7.44117 20.5013 10.0004 20.5013C10.5992 20.5013 11.1618 20.4709 11.6885 20.4104C11.9374 20.9105 12.2512 21.3743 12.6175 21.7908C11.8153 21.9315 10.9423 22.0013 10.0004 22.0013C7.11087 22.0013 4.87205 21.3447 3.30918 20.001C2.48056 19.2887 2.00391 18.2503 2.00391 17.1575V16.2502C2.00391 15.0075 3.01127 14.0002 4.25391 14.0002L12.0226 13.9996ZM16.7196 14.5889L16.6503 14.6467L14.1347 17.163L14.0941 17.2137L14.0594 17.2711L14.0272 17.3491L14.0156 17.3923L14.0044 17.4787L14.0082 17.5661L14.0271 17.6513L14.0591 17.729L14.0837 17.7714L14.1346 17.8374L16.6503 20.3538C16.8456 20.5491 17.1622 20.5491 17.3574 20.3538C17.531 20.1802 17.5503 19.9108 17.4153 19.716L17.3574 19.6467L15.7114 18.0003H20.5004C20.7458 18.0003 20.95 17.8234 20.9923 17.5901L21.0004 17.5003C21.0004 17.2548 20.8235 17.0507 20.5902 17.0083L20.5004 17.0003H15.7114L17.3574 15.3538C17.531 15.1802 17.5503 14.9108 17.4153 14.716L17.3574 14.6467C17.1839 14.4731 16.9145 14.4539 16.7196 14.5889ZM10.0004 2.00488C12.7618 2.00488 15.0004 4.24346 15.0004 7.00488C15.0004 9.76631 12.7618 12.0049 10.0004 12.0049C7.23894 12.0049 5.00036 9.76631 5.00036 7.00488C5.00036 4.24346 7.23894 2.00488 10.0004 2.00488ZM10.0004 3.50488C8.06737 3.50488 6.50036 5.07189 6.50036 7.00488C6.50036 8.93788 8.06737 10.5049 10.0004 10.5049C11.9334 10.5049 13.5004 8.93788 13.5004 7.00488C13.5004 5.07189 11.9334 3.50488 10.0004 3.50488Z" fill="#212121"/>
</svg>

<svg xmlns="http://www.w3.org/2000/svg" width="24" height="24"><path d="M17.5 12a5.5 5.5 0 1 1 0 11 5.5 5.5 0 0 1 0-11Zm-5.477 2a6.47 6.47 0 0 0-.709 1.5h-7.06a.75.75 0 0 0-.75.75v.907c0 .656.286 1.28.783 1.707C5.545 19.945 7.441 20.5 10 20.5c.6 0 1.162-.03 1.688-.09.25.5.563.963.93 1.38-.803.14-1.676.21-2.618.21-2.89 0-5.128-.656-6.69-2a3.75 3.75 0 0 1-1.306-2.844v-.907A2.25 2.25 0 0 1 4.254 14h7.769Zm4.697.589-.07.058-2.515 2.516-.04.05-.036.058-.032.078-.011.043-.012.087.004.087.02.085.031.078.025.042.05.066 2.516 2.517a.5.5 0 0 0 .765-.638l-.058-.07L15.711 18h4.79a.5.5 0 0 0 .491-.41L21 17.5a.5.5 0 0 0-.41-.492L20.5 17h-4.789l1.646-1.646a.5.5 0 0 0 .058-.638l-.058-.07a.5.5 0 0 0-.637-.057ZM10 2.005a5 5 0 1 1 0 10 5 5 0 0 1 0-10Zm0 1.5a3.5 3.5 0 1 0 0 7 3.5 3.5 0 0 0 0-7Z"/></svg>
